packages/core/src/svgs/cake.svg

<svg width="24" height="24" viewBox="0 0 24 24" fill="none" xmlns="http://www.w3.org/2000/svg">
<g clip-path="url(#clip0_31_7671)">
<path d="M0 0H24V24H0V0Z" fill="#37CBD4"/>
<path d="M18.6428 14.623C18.6428 16.8387 15.6728 18.6515 12.0213 18.6515C8.3699 18.6515 5.3999 16.8387 5.3999 14.623V13.5815H18.6856V14.623H18.6428Z" fill="#FBD984"/>
<path d="M7.95847 6.93435C7.91768 6.7436 7.91994 6.54616 7.9651 6.35641C8.01027 6.16665 8.09719 5.98936 8.21954 5.83745C8.34189 5.68553 8.49659 5.56283 8.67236 5.47827C8.84814 5.3937 9.04056 5.34942 9.23562 5.34863C9.96419 5.34863 10.7828 5.94006 10.7828 6.66435V9.6472C11.2413 9.60435 11.4728 9.56149 11.9742 9.56149C12.4328 9.56149 12.6685 9.51435 13.1228 9.56149L13.2385 6.50578C13.2385 5.78149 13.937 5.34863 14.6699 5.34863C15.4885 5.34863 16.127 6.12006 15.9942 6.93435L15.5913 10.1915C17.5113 10.9158 18.6385 12.1801 18.6385 13.6286C18.6385 15.8443 15.6728 17.6529 12.0213 17.6529C8.3699 17.6529 5.3999 15.8443 5.3999 13.6243C5.3999 12.1801 6.41133 10.9158 8.33133 10.1915L7.95847 6.93435Z" fill="#CA7D45"/>
<path d="M10.2857 13.5001C10.2857 14.0787 10.0029 14.5716 9.64286 14.5716C9.28286 14.5716 9 14.0787 9 13.5001C9 12.9216 9.28286 12.4287 9.64286 12.4287C10.0029 12.4287 10.2857 12.9216 10.2857 13.5001ZM15 13.5001C15 14.0787 14.7171 14.5716 14.3571 14.5716C13.9971 14.5716 13.7143 14.0787 13.7143 13.5001C13.7143 12.9216 13.9971 12.4287 14.3571 12.4287C14.7171 12.4287 15 12.9216 15 13.5001Z" fill="#522D0B"/>
<path d="M7.71425 7.28592C7.49997 6.17164 8.25854 5.14307 9.38568 5.14307C10.3757 5.14307 11.1428 5.95735 11.1428 6.94307L11.0014 9.20592H11.9785C12.2357 9.20592 12.5185 9.20592 12.8571 9.24878V6.94307C12.8571 5.95735 13.5343 5.14307 14.5285 5.14307C15.6557 5.14307 16.4571 6.17164 16.2857 7.28592L15.8571 9.90021C17.5457 10.6288 18.8571 11.9145 18.8571 13.5002V14.4859C18.8571 15.8145 17.9914 16.9288 16.7357 17.6574C15.4843 18.4288 13.8428 18.8574 11.9785 18.8574C10.1143 18.8574 8.47282 18.4288 7.22139 17.6574C6.00854 16.9288 5.14282 15.8145 5.14282 14.4859V13.5002C5.14282 11.9145 6.45425 10.5859 8.14282 9.85735L7.71425 7.28592ZM15.4285 10.2859L15.8571 7.25592C15.9857 6.4845 15.3943 5.65735 14.5714 5.65735C14.2362 5.65493 13.9133 5.7835 13.6716 6.01566C13.4298 6.24782 13.2883 6.56521 13.2771 6.90021V9.72878C12.9171 9.67307 12.3814 9.64307 11.9785 9.64307C11.5285 9.64307 11.0014 9.68592 10.6371 9.72878L10.7143 6.94307C10.7143 6.25735 10.0714 5.57164 9.38568 5.57164C8.60568 5.57164 7.99711 6.42878 8.17282 7.20021L8.57139 10.2859C6.75425 10.9716 5.57139 12.1716 5.57139 13.5431V14.5288C5.57139 16.6288 8.53711 18.4288 12 18.4288C15.4628 18.4288 18.4285 16.6288 18.4285 14.5288V13.5431C18.4714 12.1288 17.2885 10.9716 15.4285 10.2859Z" fill="#522D0B"/>
</g>
<defs>
<clipPath id="clip0_31_7671">
<rect width="24" height="24" fill="white"/>
</clipPath>
</defs>
</svg>

<svg xmlns="http://www.w3.org/2000/svg" width="24" height="24" fill="none" viewBox="0 0 24 24"><g clip-path="url(#a)"><path fill="#37CBD4" d="M0 0h24v24H0z"/><path fill="#FBD984" d="M18.643 14.623c0 2.216-2.97 4.028-6.622 4.028S5.4 16.84 5.4 14.624v-1.041h13.286v1.041z"/><path fill="#CA7D45" d="M7.958 6.934A1.312 1.312 0 0 1 9.236 5.35c.728 0 1.547.591 1.547 1.315v2.983c.458-.043.69-.086 1.191-.086.459 0 .694-.047 1.149 0l.116-3.055c0-.725.698-1.157 1.43-1.157.82 0 1.458.771 1.325 1.585l-.403 3.257c1.92.725 3.048 1.99 3.048 3.438 0 2.215-2.966 4.024-6.618 4.024-3.651 0-6.621-1.809-6.621-4.029 0-1.444 1.011-2.708 2.931-3.433z"/><path fill="#522D0B" d="M10.286 13.5c0 .579-.283 1.072-.643 1.072S9 14.079 9 13.5c0-.578.283-1.071.643-1.071s.643.493.643 1.071m4.714 0c0 .579-.283 1.072-.643 1.072s-.643-.493-.643-1.072c0-.578.283-1.071.643-1.071S15 12.922 15 13.5"/><path fill="#522D0B" d="M7.714 7.286C7.5 6.172 8.26 5.143 9.386 5.143c.99 0 1.757.814 1.757 1.8L11 9.206h.978c.257 0 .54 0 .878.043V6.943c0-.986.677-1.8 1.672-1.8 1.127 0 1.928 1.029 1.757 2.143L15.857 9.9c1.689.729 3 2.015 3 3.6v.986c0 1.329-.866 2.443-2.121 3.171-1.252.772-2.893 1.2-4.757 1.2-1.865 0-3.506-.428-4.758-1.2-1.212-.728-2.078-1.842-2.078-3.171V13.5c0-1.585 1.311-2.914 3-3.643zm7.714 3 .43-3.03c.128-.772-.464-1.599-1.287-1.599A1.286 1.286 0 0 0 13.277 6.9V9.73a10 10 0 0 0-1.298-.086c-.45 0-.978.043-1.342.086l.077-2.786c0-.686-.643-1.371-1.328-1.371-.78 0-1.389.857-1.213 1.628l.398 3.086c-1.817.686-3 1.886-3 3.257v.986c0 2.1 2.966 3.9 6.429 3.9s6.429-1.8 6.429-3.9v-.986c.042-1.414-1.14-2.571-3-3.257"/></g><defs><clipPath id="a"><path fill="#fff" d="M0 0h24v24H0z"/></clipPath></defs></svg>
